X:1721
T:Boni Cate of Edinbrough (Bonny Kate of Edinboro')
M:4/4
L:1/8
S:Henry Atkinson 1694/5 trans. John Stoke 1883
N:Clef missing from original, also 1st note of bars 5,9,13 and 17
K:D major
ABAFA2de|e3dB3A|BcBA BcBA|BdAFE3E|ABAFA2de|e3dB3A|Bdef ecBA|B2d2d4:||:ag
afa2b2|afedg2d2|BcdBg2G2|GABG BcdB|ABcAa3e|c2BAA2AG|FGAFB2A2|BdBGE3E|ABA
Fd2dG|F2EDD4||


